shader_type canvas_item;
render_mode light_only;

//void vertex() {
	//// Called for every vertex the material is visible on.
//}


//void fragment() {
	//vec4 c = textureLod(screen_texture, SCREEN_UV, 0.0);
//
	//if (c.a > 0.0001) {
		//c.rgb /= c.a;
	//}
//
	//COLOR *= c;
//}

//void light() {
	//// Called for every pixel for every light affecting the CanvasItem.
	//// Uncomment to replace the default light processing function with this one.
	//LIGHT = vec4(1.0);
//}
